src/assets/icons/inside-outside.svg

<?xml version="1.0" encoding="utf-8"?>
<!-- Generator: Adobe Illustrator 23.1.1, SVG Export Plug-In . SVG Version: 6.00 Build 0)  -->
<svg version="1.1" id="Layer_1" xmlns="http://www.w3.org/2000/svg" xmlns:xlink="http://www.w3.org/1999/xlink" x="0px" y="0px"
	 width="32px" height="32px" viewBox="0 0 32 32" enable-background="new 0 0 32 32" xml:space="preserve">
<path id="inside-outside-id_2_" fill-rule="evenodd" clip-rule="evenodd" d="M31.87,15.89L23.63,9.3c-0.12-0.1-0.29-0.1-0.41,0
	l-8.25,6.59c-0.25,0.2-0.11,0.6,0.2,0.6h1.32v10.23c0,0.18,0.15,0.33,0.33,0.33h3.96c0.18,0,0.33-0.15,0.33-0.33v-5.94
	c0-0.18,0.15-0.33,0.33-0.33h3.96c0.18,0,0.33,0.15,0.33,0.33v5.94c0,0.18,0.15,0.33,0.33,0.33h3.95c0.19,0,0.34-0.15,0.34-0.34
	V16.49h1.32C31.98,16.49,32.12,16.09,31.87,15.89z M8.37,13.8h1.24c0.31,0,0.52-0.36,0.4-0.68L6.34,4.05c-0.15-0.4-0.65-0.4-0.8,0
	l-3.67,9.06c-0.12,0.32,0.09,0.68,0.4,0.68H3.5l-3.46,8.04c-0.13,0.3,0.08,0.64,0.39,0.64h4.14v3.49c0,0.6,0.48,1.08,1.08,1.08h0.58
	c0.6,0,1.08-0.48,1.08-1.08v-3.49h4.14c0.31,0,0.52-0.34,0.39-0.64L8.37,13.8L8.37,13.8z"/>
</svg>

<svg xmlns="http://www.w3.org/2000/svg" xmlns:xlink="http://www.w3.org/1999/xlink" width="32" height="32" viewBox="0 0 32 32"><defs><mask id="a" x="0" y="0" width="32" height="32" maskUnits="userSpaceOnUse"><path d="M31.87,15.89,23.63,9.3a.35.35,0,0,0-.41,0L15,15.89a.34.34,0,0,0,.2.6h1.32V26.72a.33.33,0,0,0,.33.33h4a.33.33,0,0,0,.33-.33V20.78a.33.33,0,0,1,.33-.33h4a.33.33,0,0,1,.33.33v5.94a.33.33,0,0,0,.33.33h4a.34.34,0,0,0,.34-.34V16.49h1.32A.34.34,0,0,0,31.87,15.89ZM8.37,13.8H9.61a.49.49,0,0,0,.4-.68L6.34,4.05a.42.42,0,0,0-.8,0L1.86,13.12a.49.49,0,0,0,.4.68H3.5L0,21.84a.44.44,0,0,0,.39.63H4.57V26A1.08,1.08,0,0,0,5.65,27h.58A1.08,1.08,0,0,0,7.31,26V22.47h4.14a.45.45,0,0,0,.39-.63l-3.46-8Z" fill="#fff" fill-rule="evenodd"/></mask></defs><title>Asset 71</title><g mask="url(#a)"><path d="M0,0H32V32H0Z" fill="#101010" fill-rule="evenodd"/></g></svg>
